X:312
T:Heights of Cassino, The 
C:Joe Buchanan's Scottish Tome - Page 084.0
I:084 0
C:D. MacRae
R:March
Z:Carl Allison
L:1/8
M:6/8
K:Dmaj
f|"D"A>AA (B<de)|"D"(f2a) f>ed|"A"e>fe (e2d)|(e<fe) d>BG|
"D"A>AA (B<de)|"D"f2a f>ed|f>AA ("A7"e<fe)|"D"d3 d2 :|
(f/>g/)|"D"a>fd f3|(f2a) f>ed|"A"e>Ae e2 d|("D"e<fe) d>BG|
"D"a>fd f3|f2a f>ed|f>AA ("A7"e<fe)|"D"d3 d2 :|
f|"D"A2 A "G"B>AG|"D"A>AA f3|f2a f>ed|"A7"(e<fe) d>BG|
"A"A2 A "G"B>AG|"D"A>AA f3|f>AA "A7"(e<fe)|"D"d3 d2 :|
(f/>g/)|"D"a>fe d>ef|A>AA f3|(f2a) f>ed|("A7"e<fe) d>BG|
"D"a>fe d>ef|A>AA f3|f>AA ("A7"e<fe)|"D"d3 d>fg |
"D"A2 A "G"B>AG|"D"A>AA f3|f>AA "A7"(e<fe)|"D"d3 d2 |]

